X:14
T:Childgrove
S:Bernie Waugh
R:Reel
M:4/4
L:1/4
K:D Dor
|:A|\
"Dm"Ad de|"Bb"f2 ed|"Gm"gf ed|"Am"e>d c/B/A|\
"Dm"Ad de|"Bb"f2 ea|"Gm"gf "Am"e/d/c|"Dm"d3:|
|:f/g/|\
"F"af fa|"C"ge eg|"Dm"f d d/e/f/d/|"Am"eA Af/g/|\
"F"af fa|"G"g>f e/f/g|"Bb"fe/d/ "Am"e/d/c|"Dm"d3:|


